X:394
T:Wind the Bobbin Up
R:polka 32
M:4/4
L:1/8
K:G
d2de dBGB|d2 de dBGB|c2Ac B2GB|AGFG ABce|!
d2de dBGB|d2de dBGB|c2 Ac B2 GB|A2F2 G4:|!
A2 FE D2D2|G2B2d3B|c2Ac B2 G2|AGFG D2 D2|!
A2 FE D2D2|G2B2d3B|c2Ac B2 GB|A2F2G4:|

